X:31
T:Christmas Eve
R:reel
C:Tommy Coen (1910-1974)
Z:id:hn-reel-31
M:C|
K:G
DB,DE ~G3A|B2dB ABGA|BAGE DB,DE|GABG ABGE|
DB,DE GFGA|B2dB ABGA|BAGE DB,DB|1 ABGE ~G3E:|2 ABGE ~G3A||
|:BABd edeg|bage g2eg|abae gage|dBgB A2GA|
BA(3Bcd edeg|bage g2eg|aege dBGB|1ABGE ~G3A:|2ABGE ~G2dc|
|:BG~G2 DGBd|eg~g2 egdc|BG~G2 DGBG|EA~AA eA~AA|
BG~G2 DGBd|eg~g2 egga|bgag egdB|1ABGE ~G2dc:|2ABGE ~G3E||
